X:5093
T:Faroe Rum
S:Alistair Cochrane
R:Reel
O:Shetland
M:4/4
K:D
dB |\
(3AAA AF ABdB | ABAF E2EF | \
(3AAA AF ABde | fafe d2 :|*
|: cd |\
eA (3AAA eA (3AAA | ABde f2af |\
eA (3AAA eA (3AAA | fafe d2 :|**
